X:84
T:Sally Gardens, The
S:The Session: https://thesession.org/tunes/98#setting48123
C:Traditional
R:reel
K:G
M:4/4
L:1/8
Q:1/4=120
BA|:"G"G2DG B2GB|dBeB dBAB|"G"d2Bd "Em"efge|"Am"dBAB "D"GEDE|
|"G"G2DG B2GB|dBeB dBAB|"G"d2Bd "C"egdB|1 "D"AcBA "G"GEED:|2 "D"AcBA "G"G2||
|:Bc|"G"dggf g2de|g2bg ageg|"Am"eaag a2eg|a2bg ageg|
|"G"dggf g2de|g2bg ageg|"G"d2Bd "C"egdB|"D"Ac (3BAB "G"G2:|

